src/topics/icons/codepicnic.svg

<svg height="270" preserveAspectRatio="xMidYMid" viewBox="0 0 256 270" width="256" xmlns="http://www.w3.org/2000/svg" xmlns:xlink="http://www.w3.org/1999/xlink"><linearGradient id="a" x1="50%" x2="50%" y1="0%" y2="100%"><stop offset="0" stop-color="#286a87"/><stop offset="1" stop-color="#00b0e0"/></linearGradient><path d="m200.485098 185.751285c4.472764 0 7.893114-3.683454 7.893114-7.893114v-103.6628986s0 0 0-.2631038c0-23.1531347-15.523125-42.8859199-36.834533-49.463515l-74.9845834-22.89003078c-3.4203495-1.05241521-7.1038027-1.57862282-10.5241521-1.57862282-19.2065776 0-34.729702 15.7862282-34.729702 34.729702v61.0400822l8.1562179-1.5786228 7.6300103-5.5251799v-53.9362795c0-10.5241522 8.4193217-18.9434738 18.9434738-18.9434738 1.0524152 0 2.1048304 0 2.8941418.2631038s1.8417266.2631038 2.631038.5262076l75.7738947 23.1531346c14.733813 4.4727646 25.257966 18.1541624 25.257966 34.2034944v.2631038 103.6628986c0 4.20966 3.683453 7.893114 7.893114 7.893114zm55.514902-87.3504628v94.9804728c0 2.10483-1.578623 3.946557-3.420349 4.735868l-113.397739 68.406989c-3.946557 1.841727-8.156218 2.894142-12.628983 2.894142-3.157246 0-6.051387-.263104-8.156218-1.052415l-112.08221974-37.097636c-3.15724563-.789312-5.52517985-2.894142-6.31449126-6.051388v-93.928057h.2631038c.26310381 1.315519 1.57862282 2.894141 2.89414183 3.157245l111.02980437 33.677287c3.42035 1.052415 7.103803 1.841727 11.05036 1.841727 6.577595 0 13.15519-1.841727 18.417266-4.998973l42.096609-23.942446v36.834533c0 8.156217 6.577595 14.733813 14.733813 14.733813 8.419321 0 14.996916-6.577596 14.996916-14.733813v-53.673176l38.413156-22.10072c1.315519-.789311 2.10483-2.3679338 2.10483-3.6834528zm-70.248715-24.2055498v63.4080166l-43.412128 8.682425c-3.420349.789312-7.103802 1.052415-10.524152 1.052415-5.262076 0-10.524152-.789311-14.733813-2.10483l-106.8201437-32.361768c-2.10483042-.263103-3.42034943-2.10483-3.42034943-4.20966 0-2.367935 1.57862282-4.209661 3.68345323-4.472765l48.9373073-9.9979446 55.7780066-40.2548819c4.20966-3.1572456 9.73484-5.262076 15.786228-5.262076 2.894142 0 5.52518.5262076 7.893114 1.315519l44.727646 13.4182939c1.315519 3.1572457 2.104831 6.8406989 2.104831 10.787256zm58.672148 7.6300102c3.946557 1.0524152 6.840699 4.7358685 6.840699 8.9455293 0 3.1572457-1.841727 6.0513875-3.946557 7.8931141l-31.835561 22.890031v-47.3586846-.5262077c-.263103-.2631038-.263103-.2631038-.263103-.5262076z" fill="url(#a)"/></svg>

<?xml version="1.0" encoding="UTF-8" standalone="no"?>
<svg width="256px" height="270px" viewBox="0 0 256 270" version="1.1" xmlns="http://www.w3.org/2000/svg" xmlns:xlink="http://www.w3.org/1999/xlink" preserveAspectRatio="xMidYMid">
    <defs>
        <linearGradient x1="50%" y1="0%" x2="50%" y2="100%" id="linearGradient-1">
            <stop stop-color="#286A87" offset="0%"></stop>
            <stop stop-color="#00B0E0" offset="100%"></stop>
        </linearGradient>
    </defs>
    <g>
        <path d="M200.485098,185.751285 L200.485098,185.751285 L200.485098,185.751285 C204.957862,185.751285 208.378212,182.067831 208.378212,177.858171 L208.378212,177.858171 L208.378212,177.858171 L208.378212,74.1952724 C208.378212,74.1952724 208.378212,74.1952724 208.378212,73.9321686 L208.378212,73.9321686 C208.378212,50.7790339 192.855087,31.0462487 171.543679,24.4686536 L96.5590956,1.57862282 C93.1387461,0.526207605 89.4552929,0 86.0349435,0 C66.8283659,0 51.3052415,15.7862282 51.3052415,34.729702 L51.3052415,95.7697842 L59.4614594,94.1911614 L67.0914697,88.6659815 L67.0914697,34.729702 C67.0914697,24.2055498 75.5107914,15.7862282 86.0349435,15.7862282 C87.0873587,15.7862282 88.1397739,15.7862282 88.9290853,16.049332 C89.7183967,16.3124358 90.7708119,16.3124358 91.5601233,16.5755396 L167.334018,39.7286742 C182.067831,44.2014388 192.591984,57.8828366 192.591984,73.9321686 L192.591984,74.1952724 L192.591984,74.1952724 L192.591984,177.858171 L192.591984,177.858171 L192.591984,177.858171 C192.591984,182.067831 196.275437,185.751285 200.485098,185.751285 L200.485098,185.751285 Z M256,98.4008222 L256,193.381295 C256,195.486125 254.421377,197.327852 252.579651,198.117163 L139.181912,266.524152 C135.235355,268.365879 131.025694,269.418294 126.552929,269.418294 C123.395683,269.418294 120.501542,269.15519 118.396711,268.365879 L6.31449126,231.268243 C3.15724563,230.478931 0.789311408,228.374101 0,225.216855 L0,131.288798 L0.263103803,131.288798 C0.526207605,132.604317 1.84172662,134.182939 3.15724563,134.446043 L114.18705,168.12333 C117.6074,169.175745 121.290853,169.965057 125.23741,169.965057 C131.815005,169.965057 138.3926,168.12333 143.654676,164.966084 L185.751285,141.023638 L185.751285,177.858171 C185.751285,186.014388 192.32888,192.591984 200.485098,192.591984 C208.904419,192.591984 215.482014,186.014388 215.482014,177.858171 L215.482014,124.184995 L253.89517,102.084275 C255.210689,101.294964 256,99.7163412 256,98.4008222 L256,98.4008222 Z M185.751285,74.1952724 L185.751285,137.603289 L142.339157,146.285714 C138.918808,147.075026 135.235355,147.338129 131.815005,147.338129 C126.552929,147.338129 121.290853,146.548818 117.081192,145.233299 L10.2610483,112.871531 C8.15621788,112.608428 6.84069887,110.766701 6.84069887,108.661871 C6.84069887,106.293936 8.41932169,104.45221 10.5241521,104.189106 L59.4614594,94.1911614 L115.239466,53.9362795 C119.449126,50.7790339 124.974306,48.6742035 131.025694,48.6742035 C133.919836,48.6742035 136.550874,49.2004111 138.918808,49.9897225 L183.646454,63.4080164 C184.961973,66.5652621 185.751285,70.2487153 185.751285,74.1952724 L185.751285,74.1952724 Z M244.423433,81.8252826 C248.36999,82.8776978 251.264132,86.5611511 251.264132,90.7708119 C251.264132,93.9280576 249.422405,96.8221994 247.317575,98.663926 L215.482014,121.553957 L215.482014,74.1952724 L215.482014,73.6690647 C215.218911,73.4059609 215.218911,73.4059609 215.218911,73.1428571 L244.423433,81.8252826 Z" fill="url(#linearGradient-1)"></path>
    </g>
</svg>
